public/img/vitest.svg

<svg xmlns="http://www.w3.org/2000/svg" width="290" height="290" viewBox="0 0 165 165" fill="none">
<g clip-path="url(#clip0_301_2)">
<g filter="url(#filter0_d_301_2)">
<path d="M120.831 57.2543L84.693 109.505C84.3099 110.059 83.7558 110.474 83.1148 110.687C82.4738 110.9 81.7809 110.898 81.1412 110.684C80.5015 110.469 79.95 110.052 79.5702 109.497C79.1905 108.941 79.0032 108.277 79.037 107.606L80.4833 78.7582L57.1343 73.8064C56.6353 73.7007 56.1704 73.474 55.7807 73.1465C55.391 72.8191 55.0885 72.4009 54.9001 71.929C54.7117 71.4571 54.6432 70.9461 54.7006 70.4412C54.758 69.9364 54.9395 69.4532 55.2291 69.0345L91.3675 16.7837C91.7507 16.2294 92.3048 15.8145 92.9458 15.6018C93.5869 15.3891 94.2798 15.3902 94.9196 15.6051C95.5593 15.8199 96.1109 16.2367 96.4906 16.7923C96.8703 17.3478 97.0575 18.0117 97.0236 18.6833L95.5773 47.5314L118.926 52.4827C119.425 52.5885 119.89 52.8152 120.28 53.1426C120.67 53.4701 120.972 53.8883 121.16 54.3602C121.349 54.8321 121.417 55.3431 121.36 55.8479C121.303 56.3528 121.121 56.836 120.831 57.2547L120.831 57.2543Z" fill="#FCC72B"/>
<path d="M82.9866 153.343C82.0254 153.344 81.0735 153.156 80.1855 152.788C79.2975 152.42 78.4909 151.88 77.8122 151.2L43.6658 117.056C42.2998 115.683 41.5341 113.824 41.5366 111.887C41.5392 109.95 42.3098 108.092 43.6796 106.723C45.0493 105.353 46.9064 104.582 48.8435 104.579C50.7807 104.577 52.6399 105.342 54.0134 106.708L82.9866 135.678L146.105 72.5626C147.481 71.2088 149.336 70.4536 151.266 70.4615C153.197 70.4693 155.046 71.2396 156.41 72.6045C157.775 73.9695 158.546 75.8184 158.554 77.7487C158.561 79.679 157.806 81.5342 156.452 82.9101L88.1597 151.2C87.4811 151.881 86.6747 152.42 85.7869 152.788C84.8992 153.156 83.9475 153.344 82.9866 153.343Z" fill="#729B1B"/>
<path d="M82.9572 153.343C83.9184 153.344 84.8703 153.156 85.7583 152.788C86.6463 152.42 87.4528 151.88 88.1316 151.2L122.278 117.056C123.644 115.683 124.41 113.824 124.407 111.887C124.405 109.95 123.634 108.092 122.264 106.723C120.894 105.353 119.037 104.582 117.1 104.579C115.163 104.577 113.304 105.342 111.93 106.708L82.9572 135.678L19.8389 72.5626C18.4629 71.2088 16.6077 70.4536 14.6775 70.4615C12.7472 70.4693 10.8982 71.2396 9.53331 72.6045C8.16839 73.9695 7.39811 75.8184 7.39025 77.7487C7.38239 79.679 8.13759 81.5342 9.49135 82.9101L77.784 151.2C78.4627 151.881 79.2691 152.42 80.1568 152.788C81.0446 153.156 81.9963 153.344 82.9572 153.343Z" fill="#729B1B" fill-opacity="0.5"/>
</g>
</g>
<defs>
<filter id="filter0_d_301_2" x="1.3902" y="10.4431" width="167.163" height="153.9" filterUnits="userSpaceOnUse" color-interpolation-filters="sRGB">
<feFlood flood-opacity="0" result="BackgroundImageFix"/>
<feColorMatrix in="SourceAlpha" type="matrix" values="0 0 0 0 0 0 0 0 0 0 0 0 0 0 0 0 0 0 127 0" result="hardAlpha"/>
<feOffset dx="2" dy="3"/>
<feGaussianBlur stdDeviation="4"/>
<feComposite in2="hardAlpha" operator="out"/>
<feColorMatrix type="matrix" values="0 0 0 0 0.108333 0 0 0 0 0.108333 0 0 0 0 0.108333 0 0 0 0.2 0"/>
<feBlend mode="normal" in2="BackgroundImageFix" result="effect1_dropShadow_301_2"/>
<feBlend mode="normal" in="SourceGraphic" in2="effect1_dropShadow_301_2" result="shape"/>
</filter>
<clipPath id="clip0_301_2">
<rect width="165" height="165" fill="white"/>
</clipPath>
</defs>
</svg>

<svg xmlns="http://www.w3.org/2000/svg" width="36" height="36" viewBox="0 0 165.002 165.002" fill="none"><g filter="url(#a)" clip-path="url(#b)"><path d="m120.833 57.251-36.137 52.256a3.147 3.147 0 0 1-1.579 1.176 3.058 3.058 0 0 1-1.973 0 3.07 3.07 0 0 1-1.571-1.184 3.11 3.11 0 0 1-.54-1.893l1.45-28.847-23.345-4.954a3.039 3.039 0 0 1-1.353-.661 3.026 3.026 0 0 1-.886-1.216 3.12 3.12 0 0 1-.202-1.49c.065-.5.242-.983.532-1.402L91.366 16.78a3.15 3.15 0 0 1 1.579-1.176 3.087 3.087 0 0 1 3.544 1.192c.379.556.572 1.216.532 1.885l-1.442 28.847 23.345 4.954c.5.105.967.33 1.353.661.395.33.693.749.887 1.216.185.475.249.983.193 1.49a2.997 2.997 0 0 1-.524 1.402Z" fill="#FCC72B"/><path d="M82.988 153.346a7.413 7.413 0 0 1-2.803-.556 7.507 7.507 0 0 1-2.376-1.587l-34.14-34.148a7.31 7.31 0 0 1-2.135-5.171 7.347 7.347 0 0 1 2.143-5.164 7.349 7.349 0 0 1 5.164-2.143 7.31 7.31 0 0 1 5.171 2.135l28.976 28.968 63.116-63.116a7.321 7.321 0 0 1 5.163-2.102 7.309 7.309 0 0 1 5.14 2.143 7.307 7.307 0 0 1 2.151 5.147c0 1.925-.75 3.778-2.103 5.156L88.16 151.203a7.343 7.343 0 0 1-2.376 1.587 7.409 7.409 0 0 1-2.796.556Z" fill="#729B1B"/><path d="M82.956 153.346a7.44 7.44 0 0 0 2.803-.556 7.389 7.389 0 0 0 2.369-1.587l34.147-34.148a7.305 7.305 0 0 0 2.135-5.171 7.343 7.343 0 0 0-2.143-5.164 7.347 7.347 0 0 0-5.163-2.143 7.31 7.31 0 0 0-5.172 2.135L82.956 135.68 19.841 72.564a7.324 7.324 0 0 0-10.311.041 7.325 7.325 0 0 0-2.143 5.147 7.32 7.32 0 0 0 2.102 5.156l68.295 68.295a7.4 7.4 0 0 0 2.369 1.587 7.475 7.475 0 0 0 2.803.556Z" fill="#729B1B" fill-opacity=".5"/></g><defs><clipPath id="b"><path fill="#fff" d="M0 0h165.002v165.002H0V0z"/></clipPath><filter id="a" x="1.39" y="10.443" width="167.163" height="153.9" filterUnits="userSpaceOnUse" color-interpolation-filters="sRGB"><feFlood flood-opacity="0" result="BackgroundImageFix"/><feColorMatrix in="SourceAlpha" values="0 0 0 0 0 0 0 0 0 0 0 0 0 0 0 0 0 0 127 0" result="hardAlpha"/><feOffset dx="2" dy="3"/><feGaussianBlur stdDeviation="4"/><feComposite in2="hardAlpha" operator="out"/><feColorMatrix values="0 0 0 0 0.108333 0 0 0 0 0.108333 0 0 0 0 0.108333 0 0 0 0.2 0"/><feBlend in2="BackgroundImageFix" result="effect1_dropShadow_301_2"/><feBlend in="SourceGraphic" in2="effect1_dropShadow_301_2" result="shape"/></filter></defs></svg>
